svgs/solid/cup-togo.svg

<svg xmlns="http://www.w3.org/2000/svg" viewBox="0 0 448 512"><!-- Font Awesome Pro 6.0.0-alpha2 by @fontawesome - https://fontawesome.com License - https://fontawesome.com/license (Commercial License) --><path d="M432 64H416L392.875 17.75C387.375 6.875 376.375 0 364.25 0H83.75C71.625 0 60.625 6.875 55.125 17.75L32 64H16C7.125 64 0 71.125 0 80V112C0 120.875 7.125 128 16 128H432C440.875 128 448 120.875 448 112V80C448 71.125 440.875 64 432 64ZM106.75 512H341.25C357.875 512 371.75 499.25 373.125 482.625L400 160H48L74.875 482.625C76.25 499.25 90.125 512 106.75 512ZM327.75 256L314.5 416H133.5L120.25 256H327.75Z"/></svg>

<svg xmlns="http://www.w3.org/2000/svg" viewBox="0 0 448 512"><!--! Font Awesome Pro 6.0.0-alpha3 by @fontawesome - https://fontawesome.com License - https://fontawesome.com/license (Commercial License) --><path d="M432 64H416l-23.12-46.25C387.4 6.875 376.4 0 364.3 0h-280.5C71.62 0 60.63 6.875 55.13 17.75L32 64H16C7.125 64 0 71.12 0 80v32C0 120.9 7.125 128 16 128h416C440.9 128 448 120.9 448 112v-32C448 71.12 440.9 64 432 64zM106.8 512h234.5c16.62 0 30.5-12.75 31.88-29.38L400 160h-352l26.88 322.6C76.25 499.2 90.12 512 106.8 512zM327.8 256l-13.25 160h-181L120.2 256H327.8z"/></svg>
